X: 304
T:Stratfield Saye
% Nottingham Music Database
S:Pauline Wilson, via Phil Rowe
M:6/8
K:G
"G"g2d e2B|"D7"d2G AGA|"G"B3 d3-|"D7"d6|"G"g2d e2B|"G"d2G AGF|"Em"E6|e6|
"Am"a2e f2c|"Em"e2A BAB|"Am"c3 e3-|e3 c2B|"A7"A2B ^c2e|a2f efe|"D7"d6-|d6||
"G"g2d e2B|"D7"d2G AGA|"G"B3 d3-|d3 B2A|"G7"G2A B2d|"G7"g2e dBG|"C"A6-|A3 A3|
"Am"e2d e2f|"D7"a2g f2e|"G"ded B2d|"E"f3 -f2e|"Am"A2B c2d|"D7"e2g fga|"G"g6-|\
g6||<end>
<start>
